Misc/spline_axes.svg

<svg xmlns="http://www.w3.org/2000/svg" viewBox="0 0 1200 800" preserveAspectRatio="none" width="1200" height="800">
 <path d="M0,0H1200V800H0Z" style="fill: white;"></path>
 <g>
  <g transform="translate(120,80)">
   <path d="M0,0H960V640H0Z" style="fill: white; stroke: black; stroke-width: 1;"></path>
   <svg x="0" y="0" overflow="hidden" width="960" height="640" viewBox="0 0 960 640">
    <g>
     <path d="M0,264.32C1.44,264.81,7.5,266.06,9.6,267.58S18.01,276.71,19.2,278.25S27.79,291.11,28.8,292.6S37.15,304.99,38.4,306.55S45.86,315.02,48,316.53S54.4,320.11,57.6,320.08S65.09,317.88,67.2,316.36S75.56,307.82,76.8,306.26S85.39,293.74,86.4,292.26S94.8,279.5,96,277.95S103.47,268.91,105.6,267.4S112.14,263.71,115.2,264.36S123.64,269.95,124.8,271.49S133.94,288.67,134.4,289.8S143.74,317.39,144,318.27S153.4,353.1,153.6,353.88S162.99,391.12,163.2,391.91S172.5,425.67,172.8,426.6S181.7,450.66,182.4,451.99S188.92,462.27,192,462.87S200.81,457.08,201.6,455.7S210.98,430.11,211.2,429.3S220.69,385.79,220.8,385.21S230.32,328.19,230.4,327.7S239.93,263.86,240,263.38S249.51,200.9,249.6,200.38S259.06,147.96,259.2,147.3S268.34,113.12,268.8,112S275.33,99.85,278.4,100.48S287.68,114.96,288,115.92S297.5,157.51,297.6,158.07S307.15,222.65,307.2,223.07S316.76,303.49,316.8,303.85S326.36,390.52,326.4,390.88S335.95,472.96,336,473.36S345.51,540.07,345.6,540.61S354.85,582.46,355.2,583.46S362.19,596.81,364.8,595.57S374.2,575.08,374.4,574.3S383.93,521.7,384,521.24S393.56,442.42,393.6,442.07S403.17,346.26,403.2,345.95S412.77,244.74,412.8,244.43S422.36,150.34,422.4,149.98S431.92,74.94,432,74.45S441.3,28.41,441.6,27.47S448.92,13.79,451.2,15.24S460.64,38.97,460.8,39.67S470.34,97.67,470.4,98.09S479.97,183.23,480,183.56S489.57,285.41,489.6,285.7S499.17,391.75,499.2,392.05S508.76,489.25,508.8,489.6S518.32,565.97,518.4,566.45S527.69,612.39,528,613.34S535.47,626.28,537.6,624.77S547.04,600.39,547.2,599.69S556.74,542.04,556.8,541.62S566.36,458.42,566.4,458.08S575.97,360,576,359.69S585.57,258.99,585.6,258.68S595.16,167.75,595.2,167.37S604.71,97.15,604.8,96.62S614.01,55.51,614.4,54.46S621.94,43.6,624,45.14S633.41,67.96,633.6,68.72S643.13,120.69,643.2,121.17S652.75,194.63,652.8,195.01S662.36,280.02,662.4,280.38S671.96,366,672,366.38S681.54,442.07,681.6,442.52S691.06,499.37,691.2,500.02S699.94,531.48,700.8,532.9S708.12,540.02,710.4,538.57S719.73,518.94,720,518.05S729.49,476.19,729.6,475.6S739.12,418.5,739.2,418.01S748.73,354.02,748.8,353.55S758.31,291.31,758.4,290.79S767.87,238.06,768,237.42S777.28,200.24,777.6,199.28S784.04,180.05,787.2,179.7S793.63,178.96,796.8,179.25S805.92,194.67,806.4,195.81S815.75,224.31,816,225.17S825.4,260.97,825.6,261.74S834.98,298.73,835.2,299.54S844.49,332.12,844.8,333.07S853.79,356.9,854.4,358.16S862.26,370.89,864,372.49S870.47,376.24,873.6,375.78S881.54,371.28,883.2,369.68S891.73,358.84,892.8,357.33S901.36,344.17,902.4,342.67S910.54,331.29,912,329.69S918.69,322.57,921.6,321.66S928.09,320,931.2,320.52S939.08,324.96,940.8,326.55S949.29,336.78,950.4,338.3S959.51,352.11,960,352.84" style="fill: none; stroke: red; stroke-width: 2;"></path>
    </g>
    <g>
     <path d="M-9.6,305.8C-9.11,306.54,-1.61,318.74,0,320.34S6.42,324.68,9.6,324.92S16.87,323.21,19.2,321.78S27.3,314.78,28.8,313.19S37.19,302.93,38.4,301.38S46.77,290.17,48,288.61S56.02,278.74,57.6,277.14S64.69,270.53,67.2,269.21S73.72,266.47,76.8,267.08S85.02,271.4,86.4,272.99S95.47,288,96,289.19S105.31,315.31,105.6,316.22S114.98,349.52,115.2,350.32S124.59,386.25,124.8,387.05S134.13,421.07,134.4,421.96S143.54,449.48,144,450.61S151.68,466.99,153.6,468.56S160.45,472.59,163.2,471.48S172.2,459.48,172.8,458.23S182.14,432.24,182.4,431.37S191.84,394.36,192,393.66S201.48,348.49,201.6,347.87S211.1,297.35,211.2,296.78S220.7,243.79,220.8,243.23S230.28,192.21,230.4,191.59S239.8,148.31,240,147.54S249.06,117.99,249.6,116.79S256.01,104.84,259.2,105.05S268.43,117,268.8,118.02S278.29,157.41,278.4,158S287.94,218.2,288,218.65S297.55,291.9,297.6,292.3S307.15,370.89,307.2,371.28S316.74,447.51,316.8,447.93S326.32,514.62,326.4,515.12S335.84,566.82,336,567.51S345.01,598.83,345.6,600.07S353.15,609.33,355.2,607.79S364.6,586.46,364.8,585.68S374.33,533.73,374.4,533.26S383.96,458.84,384,458.47S393.56,370.55,393.6,370.22S403.16,277.74,403.2,277.4S412.76,189.18,412.8,188.82S422.34,112.42,422.4,111.97S431.87,54.11,432,53.47S439.05,21.17,441.6,19.88S448.49,16.63,451.2,17.78S460.67,49.3,460.8,49.94S470.34,109.58,470.4,110.01S479.96,189.94,480,190.29S489.57,282.76,489.6,283.08S499.17,380.2,499.2,380.52S508.76,473.5,508.8,473.85S518.34,553.5,518.4,553.94S527.84,610.96,528,611.65S535.67,636.87,537.6,638.43S546.2,634.49,547.2,633.01S556.67,599.79,556.8,599.15S566.34,541.15,566.4,540.71S575.96,462.08,576,461.73S585.57,369.84,585.6,369.51S595.17,274.67,595.2,274.33S604.75,186.94,604.8,186.56S614.32,116.86,614.4,116.35S623.77,70.34,624,69.51S631.32,49.26,633.6,47.82S642.18,51.41,643.2,52.9S652.66,85.38,652.8,86.03S662.33,142.6,662.4,143.06S671.95,215.31,672,215.71S681.55,295.23,681.6,295.61S691.15,374.13,691.2,374.54S700.73,445.21,700.8,445.68S710.27,502.31,710.4,502.93S719.59,539.14,720,540.21S726.45,552.47,729.6,552.87S738.59,543.93,739.2,542.67S748.6,513.93,748.8,513.16S758.29,468.44,758.4,467.86S767.92,411.91,768,411.4S777.52,351.05,777.6,350.54S787.1,292.85,787.2,292.29S796.64,244.16,796.8,243.47S806.07,208.82,806.4,207.85S814.89,188.28,816,186.76S822.65,180.61,825.6,181.47S834.44,190.96,835.2,192.33S844.45,214.79,844.8,215.78S854.15,246.36,854.4,247.22S863.77,281.2,864,282.03S873.34,315.27,873.6,316.15S882.83,345.19,883.2,346.22S892.07,367.55,892.8,368.9S900.49,379.91,902.4,381.48S908.81,384.86,912,384.67S919.55,381.86,921.6,380.33S929.9,371.89,931.2,370.32S940.25,357.83,940.8,357.07" style="fill: none; stroke: #00ff00; stroke-width: 3;"></path>
    </g>
   </svg>
   <g>
    <g transform="translate(0,640)">
     <path d="M0,0h960M2,-12v12m28,-12v12m27,-24v24m28,-12v12m28,-12v12m28,-12v12m27,-12v12m28,-24v24m28,-12v12m27,-12v12m28,-12v12m28,-12v12m28,-24v24m27,-12v12m28,-12v12m28,-12v12m27,-12v12m28,-24v24m28,-12v12m27,-12v12m28,-12v12m28,-12v12m28,-24v24m27,-12v12m28,-12v12m28,-12v12m27,-12v12m28,-24v24m28,-12v12m28,-12v12m27,-12v12m28,-12v12m28,-24v24m27,-12v12m28,-12v12" style="stroke: black; stroke-width: 1;"></path>
     <g font-family="Arial" font-size="28" space="preserve" fill="black" text-anchor="middle">
      <text dy=".8em" transform="translate(57,6)">
       0
      </text>
      <text dy=".8em" transform="translate(196,6)">
       5
      </text>
      <text dy=".8em" transform="translate(335,6)">
       10
      </text>
      <text dy=".8em" transform="translate(473,6)">
       15
      </text>
      <text dy=".8em" transform="translate(612,6)">
       20
      </text>
      <text dy=".8em" transform="translate(750,6)">
       25
      </text>
      <text dy=".8em" transform="translate(889,6)">
       30
      </text>
     </g>
    </g>
    <g>
     <path d="M0,0v640M36,629h-36m18,-15h-18m18,-16h-18m18,-15h-18m36,-16h-36m18,-15h-18m18,-16h-18m18,-15h-18m36,-15h-36m18,-16h-18m18,-15h-18m18,-16h-18m36,-15h-36m18,-16h-18m18,-15h-18m18,-16h-18m36,-15h-36m18,-16h-18m18,-15h-18m18,-15h-18m36,-16h-36m18,-15h-18m18,-16h-18m18,-15h-18m36,-16h-36m18,-15h-18m18,-16h-18m18,-15h-18m36,-16h-36m18,-15h-18m18,-15h-18m18,-16h-18m36,-15h-36m18,-16h-18m18,-15h-18m18,-16h-18m36,-15h-36m18,-16h-18m18,-15h-18m18,-16h-18m36,-15h-36" style="stroke: black; stroke-width: 1;"></path>
     <g font-family="Arial" font-size="28" space="preserve" fill="black" text-anchor="end">
      <text dy=".4em" transform="translate(-4,629)">
       -1
      </text>
      <text dy=".4em" transform="translate(-4,567)">
       -0.8
      </text>
      <text dy=".4em" transform="translate(-4,506)">
       -0.6
      </text>
      <text dy=".4em" transform="translate(-4,444)">
       -0.4
      </text>
      <text dy=".4em" transform="translate(-4,382)">
       -0.2
      </text>
      <text dy=".4em" transform="translate(-4,320)">
       0
      </text>
      <text dy=".4em" transform="translate(-4,258)">
       0.2
      </text>
      <text dy=".4em" transform="translate(-4,196)">
       0.4
      </text>
      <text dy=".4em" transform="translate(-4,135)">
       0.6
      </text>
      <text dy=".4em" transform="translate(-4,73)">
       0.8
      </text>
      <text dy=".4em" transform="translate(-4,11)">
       1
      </text>
     </g>
    </g>
    <g>
     <path d="M0,0h960M15,0v24m31,-24v12m30,-12v12m31,-12v12m30,-12v12m31,-12v24m30,-24v12m31,-12v12m30,-12v12m31,-12v12m30,-12v24m30,-24v12m31,-12v12m30,-12v12m31,-12v12m30,-12v24m31,-24v12m30,-12v12m31,-12v12m30,-12v12m31,-12v24m30,-24v12m31,-12v12m30,-12v12m31,-12v12m30,-12v24m31,-24v12m30,-12v12m31,-12v12m30,-12v12m31,-12v24m30,-24v12" style="stroke: black; stroke-width: 1;"></path>
     <g font-family="Arial" font-size="28" space="preserve" fill="black" text-anchor="middle">
      <text transform="translate(15,-6)">
       0
      </text>
      <text transform="translate(168,-6)">
       5
      </text>
      <text transform="translate(320,-6)">
       10
      </text>
      <text transform="translate(472,-6)">
       15
      </text>
      <text transform="translate(625,-6)">
       20
      </text>
      <text transform="translate(777,-6)">
       25
      </text>
      <text transform="translate(930,-6)">
       30
      </text>
     </g>
    </g>
    <g transform="translate(960)">
     <path d="M0,0v640M0,630h-18m18,-16h-18m18,-16h-18m18,-16h-36m36,-16h-18m18,-16h-18m18,-16h-18m18,-15h-36m36,-16h-18m18,-16h-18m18,-16h-18m18,-16h-36m36,-16h-18m18,-16h-18m18,-16h-18m18,-15h-36m36,-16h-18m18,-16h-18m18,-16h-18m18,-16h-36m36,-16h-18m18,-16h-18m18,-16h-18m18,-16h-36m36,-15h-18m18,-16h-18m18,-16h-18m18,-16h-36m36,-16h-18m18,-16h-18m18,-16h-18m18,-16h-36m36,-16h-18m18,-15h-18m18,-16h-18m18,-16h-36m36,-16h-18m18,-16h-18m18,-16h-18m18,-16h-36" style="stroke: black; stroke-width: 1;"></path>
     <g font-family="Arial" font-size="28" space="preserve" fill="black" text-anchor="start">
      <text dy=".4em" transform="translate(4,582)">
       -0.8
      </text>
      <text dy=".4em" transform="translate(4,519)">
       -0.6
      </text>
      <text dy=".4em" transform="translate(4,455)">
       -0.4
      </text>
      <text dy=".4em" transform="translate(4,392)">
       -0.2
      </text>
      <text dy=".4em" transform="translate(4,328)">
       0
      </text>
      <text dy=".4em" transform="translate(4,264)">
       0.2
      </text>
      <text dy=".4em" transform="translate(4,201)">
       0.4
      </text>
      <text dy=".4em" transform="translate(4,137)">
       0.6
      </text>
      <text dy=".4em" transform="translate(4,74)">
       0.8
      </text>
      <text dy=".4em" transform="translate(4,10)">
       1
      </text>
     </g>
    </g>
   </g>
  </g>
  <g transform="translate(120,4)" font-family="Arial" font-size="40" space="preserve">
   <text fill="black" text-anchor="middle" dy=".8em" transform="translate(480)">
    sin(x)*sin(x/10)
   </text>
  </g>
 </g>
</svg>

<svg xmlns="http://www.w3.org/2000/svg" viewBox="0 0 1200 800" preserveAspectRatio="none" width="1200" height="800">
 <path d="M0,0H1200V800H0Z" style="fill: white;"></path>
 <g>
  <g transform="translate(120,80)">
   <path d="M0,0H960V640H0Z" style="fill: white; stroke: black; stroke-width: 1;"></path>
   <svg x="0" y="0" overflow="hidden" width="960" height="640" viewBox="0 0 960 640">
    <g>
     <path d="M0,264.32C1.44,264.81,7.5,266.06,9.6,267.58S18.01,276.71,19.2,278.25S27.79,291.11,28.8,292.6S37.15,304.99,38.4,306.55S45.86,315.02,48,316.53S54.4,320.11,57.6,320.08S65.09,317.88,67.2,316.36S75.56,307.82,76.8,306.26S85.39,293.74,86.4,292.26S94.8,279.5,96,277.95S103.47,268.91,105.6,267.4S112.14,263.71,115.2,264.36S123.64,269.95,124.8,271.49S133.94,288.67,134.4,289.8S143.74,317.39,144,318.27S153.4,353.1,153.6,353.88S162.99,391.12,163.2,391.91S172.5,425.67,172.8,426.6S181.7,450.66,182.4,451.99S188.92,462.27,192,462.87S200.81,457.08,201.6,455.7S210.98,430.11,211.2,429.3S220.69,385.79,220.8,385.21S230.32,328.19,230.4,327.7S239.93,263.86,240,263.38S249.51,200.9,249.6,200.38S259.06,147.96,259.2,147.3S268.34,113.12,268.8,112S275.33,99.85,278.4,100.48S287.68,114.96,288,115.92S297.5,157.51,297.6,158.07S307.15,222.65,307.2,223.07S316.76,303.49,316.8,303.85S326.36,390.52,326.4,390.88S335.95,472.96,336,473.36S345.51,540.07,345.6,540.61S354.85,582.46,355.2,583.46S362.19,596.81,364.8,595.57S374.2,575.08,374.4,574.3S383.93,521.7,384,521.24S393.56,442.42,393.6,442.07S403.17,346.26,403.2,345.95S412.77,244.74,412.8,244.43S422.36,150.34,422.4,149.98S431.92,74.94,432,74.45S441.3,28.41,441.6,27.47S448.92,13.79,451.2,15.24S460.64,38.97,460.8,39.67S470.34,97.67,470.4,98.09S479.97,183.23,480,183.56S489.57,285.41,489.6,285.7S499.17,391.75,499.2,392.05S508.76,489.25,508.8,489.6S518.32,565.97,518.4,566.45S527.69,612.39,528,613.34S535.47,626.28,537.6,624.77S547.04,600.39,547.2,599.69S556.74,542.04,556.8,541.62S566.36,458.42,566.4,458.08S575.97,360,576,359.69S585.57,258.99,585.6,258.68S595.16,167.75,595.2,167.37S604.71,97.15,604.8,96.62S614.01,55.51,614.4,54.46S621.94,43.6,624,45.14S633.41,67.96,633.6,68.72S643.13,120.69,643.2,121.17S652.75,194.63,652.8,195.01S662.36,280.02,662.4,280.38S671.96,366,672,366.38S681.54,442.07,681.6,442.52S691.06,499.37,691.2,500.02S699.94,531.48,700.8,532.9S708.12,540.02,710.4,538.57S719.73,518.94,720,518.05S729.49,476.19,729.6,475.6S739.12,418.5,739.2,418.01S748.73,354.02,748.8,353.55S758.31,291.31,758.4,290.79S767.87,238.06,768,237.42S777.28,200.24,777.6,199.28S784.04,180.05,787.2,179.7S793.63,178.96,796.8,179.25S805.92,194.67,806.4,195.81S815.75,224.31,816,225.17S825.4,260.97,825.6,261.74S834.98,298.73,835.2,299.54S844.49,332.12,844.8,333.07S853.79,356.9,854.4,358.16S862.26,370.89,864,372.49S870.47,376.24,873.6,375.78S881.54,371.28,883.2,369.68S891.73,358.84,892.8,357.33S901.36,344.17,902.4,342.67S910.54,331.29,912,329.69S918.69,322.57,921.6,321.66S928.09,320,931.2,320.52S939.08,324.96,940.8,326.55S949.29,336.78,950.4,338.3S959.51,352.11,960,352.84" style="fill: none; stroke: red; stroke-width: 2;"></path>
    </g>
    <g>
     <path d="M-9.6,305.8C-9.11,306.54,-1.61,318.74,0,320.34S6.42,324.68,9.6,324.92S16.87,323.21,19.2,321.78S27.3,314.78,28.8,313.19S37.19,302.93,38.4,301.38S46.77,290.17,48,288.61S56.02,278.74,57.6,277.14S64.69,270.53,67.2,269.21S73.72,266.47,76.8,267.08S85.02,271.4,86.4,272.99S95.47,288,96,289.19S105.31,315.31,105.6,316.22S114.98,349.52,115.2,350.32S124.59,386.25,124.8,387.05S134.13,421.07,134.4,421.96S143.54,449.48,144,450.61S151.68,466.99,153.6,468.56S160.45,472.59,163.2,471.48S172.2,459.48,172.8,458.23S182.14,432.24,182.4,431.37S191.84,394.36,192,393.66S201.48,348.49,201.6,347.87S211.1,297.35,211.2,296.78S220.7,243.79,220.8,243.23S230.28,192.21,230.4,191.59S239.8,148.31,240,147.54S249.06,117.99,249.6,116.79S256.01,104.84,259.2,105.05S268.43,117,268.8,118.02S278.29,157.41,278.4,158S287.94,218.2,288,218.65S297.55,291.9,297.6,292.3S307.15,370.89,307.2,371.28S316.74,447.51,316.8,447.93S326.32,514.62,326.4,515.12S335.84,566.82,336,567.51S345.01,598.83,345.6,600.07S353.15,609.33,355.2,607.79S364.6,586.46,364.8,585.68S374.33,533.73,374.4,533.26S383.96,458.84,384,458.47S393.56,370.55,393.6,370.22S403.16,277.74,403.2,277.4S412.76,189.18,412.8,188.82S422.34,112.42,422.4,111.97S431.87,54.11,432,53.47S439.05,21.17,441.6,19.88S448.49,16.63,451.2,17.78S460.67,49.3,460.8,49.94S470.34,109.58,470.4,110.01S479.96,189.94,480,190.29S489.57,282.76,489.6,283.08S499.17,380.2,499.2,380.52S508.76,473.5,508.8,473.85S518.34,553.5,518.4,553.94S527.84,610.96,528,611.65S535.67,636.87,537.6,638.43S546.2,634.49,547.2,633.01S556.67,599.79,556.8,599.15S566.34,541.15,566.4,540.71S575.96,462.08,576,461.73S585.57,369.84,585.6,369.51S595.17,274.67,595.2,274.33S604.75,186.94,604.8,186.56S614.32,116.86,614.4,116.35S623.77,70.34,624,69.51S631.32,49.26,633.6,47.82S642.18,51.41,643.2,52.9S652.66,85.38,652.8,86.03S662.33,142.6,662.4,143.06S671.95,215.31,672,215.71S681.55,295.23,681.6,295.61S691.15,374.13,691.2,374.54S700.73,445.21,700.8,445.68S710.27,502.31,710.4,502.93S719.59,539.14,720,540.21S726.45,552.47,729.6,552.87S738.59,543.93,739.2,542.67S748.6,513.93,748.8,513.16S758.29,468.44,758.4,467.86S767.92,411.91,768,411.4S777.52,351.05,777.6,350.54S787.1,292.85,787.2,292.29S796.64,244.16,796.8,243.47S806.07,208.82,806.4,207.85S814.89,188.28,816,186.76S822.65,180.61,825.6,181.47S834.44,190.96,835.2,192.33S844.45,214.79,844.8,215.78S854.15,246.36,854.4,247.22S863.77,281.2,864,282.03S873.34,315.27,873.6,316.15S882.83,345.19,883.2,346.22S892.07,367.55,892.8,368.9S900.49,379.91,902.4,381.48S908.81,384.86,912,384.67S919.55,381.86,921.6,380.33S929.9,371.89,931.2,370.32S940.25,357.83,940.8,357.07" style="fill: none; stroke: #00ff00; stroke-width: 3;"></path>
    </g>
   </svg>
   <g>
    <g transform="translate(0,640)">
     <path d="M0,0h960M2,-12V0M30,-12V0M57,-24V0M85,-12V0M113,-12V0M141,-12V0M168,-12V0M196,-24V0M224,-12V0M251,-12V0M279,-12V0M307,-12V0M335,-24V0M362,-12V0M390,-12V0M418,-12V0M445,-12V0M473,-24V0M501,-12V0M528,-12V0M556,-12V0M584,-12V0M612,-24V0M639,-12V0M667,-12V0M695,-12V0M722,-12V0M750,-24V0M778,-12V0M806,-12V0M833,-12V0M861,-12V0M889,-24V0M916,-12V0M944,-12V0" style="stroke: black; stroke-width: 1;"></path>
     <g font-family="Arial" font-size="28" space="preserve" fill="black" text-anchor="middle">
      <text dy=".8em" transform="translate(57,6)">
       0
      </text>
      <text dy=".8em" transform="translate(196,6)">
       5
      </text>
      <text dy=".8em" transform="translate(335,6)">
       10
      </text>
      <text dy=".8em" transform="translate(473,6)">
       15
      </text>
      <text dy=".8em" transform="translate(612,6)">
       20
      </text>
      <text dy=".8em" transform="translate(750,6)">
       25
      </text>
      <text dy=".8em" transform="translate(889,6)">
       30
      </text>
     </g>
    </g>
    <g>
     <path d="M0,0v640M36,629H0M18,614H0M18,598H0M18,583H0M36,567H0M18,552H0M18,536H0M18,521H0M36,506H0M18,490H0M18,475H0M18,459H0M36,444H0M18,428H0M18,413H0M18,397H0M36,382H0M18,366H0M18,351H0M18,336H0M36,320H0M18,305H0M18,289H0M18,274H0M36,258H0M18,243H0M18,227H0M18,212H0M36,196H0M18,181H0M18,166H0M18,150H0M36,135H0M18,119H0M18,104H0M18,88H0M36,73H0M18,57H0M18,42H0M18,26H0M36,11H0" style="stroke: black; stroke-width: 1;"></path>
     <g font-family="Arial" font-size="28" space="preserve" fill="black" text-anchor="end">
      <text dy=".4em" transform="translate(-4,629)">
       -1
      </text>
      <text dy=".4em" transform="translate(-4,567)">
       -0.8
      </text>
      <text dy=".4em" transform="translate(-4,506)">
       -0.6
      </text>
      <text dy=".4em" transform="translate(-4,444)">
       -0.4
      </text>
      <text dy=".4em" transform="translate(-4,382)">
       -0.2
      </text>
      <text dy=".4em" transform="translate(-4,320)">
       0
      </text>
      <text dy=".4em" transform="translate(-4,258)">
       0.2
      </text>
      <text dy=".4em" transform="translate(-4,196)">
       0.4
      </text>
      <text dy=".4em" transform="translate(-4,135)">
       0.6
      </text>
      <text dy=".4em" transform="translate(-4,73)">
       0.8
      </text>
      <text dy=".4em" transform="translate(-4,11)">
       1
      </text>
     </g>
    </g>
    <g>
     <path d="M0,0h960M15,0V24M46,0V12M76,0V12M107,0V12M137,0V12M168,0V24M198,0V12M229,0V12M259,0V12M290,0V12M320,0V24M350,0V12M381,0V12M411,0V12M442,0V12M472,0V24M503,0V12M533,0V12M564,0V12M594,0V12M625,0V24M655,0V12M686,0V12M716,0V12M747,0V12M777,0V24M808,0V12M838,0V12M869,0V12M899,0V12M930,0V24M960,0V12" style="stroke: black; stroke-width: 1;"></path>
     <g font-family="Arial" font-size="28" space="preserve" fill="black" text-anchor="middle">
      <text transform="translate(15,-6)">
       0
      </text>
      <text transform="translate(168,-6)">
       5
      </text>
      <text transform="translate(320,-6)">
       10
      </text>
      <text transform="translate(472,-6)">
       15
      </text>
      <text transform="translate(625,-6)">
       20
      </text>
      <text transform="translate(777,-6)">
       25
      </text>
      <text transform="translate(930,-6)">
       30
      </text>
     </g>
    </g>
    <g transform="translate(960)">
     <path d="M0,0v640M0,630H-18M0,614H-18M0,598H-18M0,582H-36M0,566H-18M0,550H-18M0,534H-18M0,519H-36M0,503H-18M0,487H-18M0,471H-18M0,455H-36M0,439H-18M0,423H-18M0,407H-18M0,392H-36M0,376H-18M0,360H-18M0,344H-18M0,328H-36M0,312H-18M0,296H-18M0,280H-18M0,264H-36M0,249H-18M0,233H-18M0,217H-18M0,201H-36M0,185H-18M0,169H-18M0,153H-18M0,137H-36M0,121H-18M0,106H-18M0,90H-18M0,74H-36M0,58H-18M0,42H-18M0,26H-18M0,10H-36" style="stroke: black; stroke-width: 1;"></path>
     <g font-family="Arial" font-size="28" space="preserve" fill="black" text-anchor="start">
      <text dy=".4em" transform="translate(4,582)">
       -0.8
      </text>
      <text dy=".4em" transform="translate(4,519)">
       -0.6
      </text>
      <text dy=".4em" transform="translate(4,455)">
       -0.4
      </text>
      <text dy=".4em" transform="translate(4,392)">
       -0.2
      </text>
      <text dy=".4em" transform="translate(4,328)">
       0
      </text>
      <text dy=".4em" transform="translate(4,264)">
       0.2
      </text>
      <text dy=".4em" transform="translate(4,201)">
       0.4
      </text>
      <text dy=".4em" transform="translate(4,137)">
       0.6
      </text>
      <text dy=".4em" transform="translate(4,74)">
       0.8
      </text>
      <text dy=".4em" transform="translate(4,10)">
       1
      </text>
     </g>
    </g>
   </g>
  </g>
  <g transform="translate(120,4)" font-family="Arial" font-size="40" space="preserve">
   <text fill="black" text-anchor="middle" dy=".8em" transform="translate(480)">
    sin(x)*sin(x/10)
   </text>
  </g>
 </g>
</svg>
